X:294
T: Morgenlied
N: A0643
O: Europa, Mitteleuropa, Deutschland
N: Babsts Gsgb 1545 II No. 46.
R: Romanze, Ballade, Lied, religioeses Lied
M: 3/1
L: 1/4
K: C
C4 | C4B,2C4D2 | B,3A,G,4
D4 | E4D2C4B,A, | B,2C2A,4 | G,8
C4 | C4B,2C4D2 | B,3A,G,4
D4 | E4D2C4B,A, | B,2C2A,4 | G,8 | z2
G2F2E2 | D4C2F4ED | E4D4
G4 | F2E4D4C2 | D4z2
G,2 | C2D2E2F2 | G4D4
F4 | E4D2G4FE | FEDCD2D2 | C4

@@@ Tune index: 607
